brandFactory_export/1.Light/Cascos auriculares_1Light.svg

<?xml version="1.0" encoding="UTF-8"?>
<svg width="24px" height="24px" viewBox="0 0 24 24" version="1.1" xmlns="http://www.w3.org/2000/svg" xmlns:xlink="http://www.w3.org/1999/xlink">
    <title>1.Light/Cascos auriculares_1Light</title>
    <g id="Symbols" stroke="none" stroke-width="1" fill="none" fill-rule="evenodd">
        <g id="1.Light/Cascos-auriculares_1Light" fill="#5CB615" fill-rule="nonzero">
            <path d="M21.2201681,10.9546218 C21.1529412,1.91596639 16.0134454,0 11.6941176,0 C7.37478992,0 2.16470588,1.92605042 2.16470588,11.1058824 C0.766386555,11.8890756 0,13.4420168 0,15.6806723 C0,18.8806723 1.53613445,20.6957983 4.32268908,20.8470588 L4.77310924,20.8470588 C6.65210084,20.7764706 7.38151261,19.3210084 7.38151261,15.6705882 C7.38151261,12.0201681 6.65210084,10.5546218 4.79327731,10.4941176 L4.32941176,10.4941176 C3.93277311,10.5142857 3.5394958,10.5781513 3.15966387,10.6857143 C3.27731092,4.26554622 6.14117647,1.00504202 11.6941176,1.00504202 C17.2470588,1.00504202 20.0907563,4.24537815 20.2285714,10.6252101 C19.9327731,10.5647059 19.6336134,10.5243697 19.3344538,10.5042017 L18.8605042,10.5042017 C16.9815126,10.5747899 16.2420168,12.0302521 16.2420168,15.6907563 C16.2420168,18.2689076 16.6151261,19.7042017 17.492437,20.4067227 C16.097479,21.2168067 14.5411765,21.7042017 12.9344538,21.8420168 C12.8806723,21.1394958 12.2722689,20.6084034 11.5663866,20.6487395 C11.1697479,20.5915966 10.7697479,20.7159664 10.4773109,20.9915966 C10.1815126,21.2705882 10.0268908,21.6672269 10.0504202,22.0739496 C10.0134454,22.4739496 10.1344538,22.8739496 10.3865546,23.1865546 C10.6722689,23.4789916 11.0655462,23.6369748 11.4689076,23.6168067 C11.8722689,23.6605042 12.2756303,23.5294118 12.5815126,23.2571429 C12.6957983,23.1361345 12.7865546,22.994958 12.8470588,22.8369748 C14.9142857,22.7092437 16.9109244,22.0134454 18.6252101,20.8302521 C18.692437,20.8336134 18.7630252,20.8336134 18.8302521,20.8302521 L19.3109244,20.8302521 C22.097479,20.6991597 23.6235294,18.8235294 23.6235294,15.6638655 C23.6235294,13.3042017 22.7764706,11.687395 21.2201681,10.9546218 Z M4.38991597,11.5058824 L4.74285714,11.5058824 C5.44201681,11.5058824 6.39663866,11.5663866 6.39663866,15.6907563 C6.39663866,19.8151261 5.41176471,19.8352941 4.64537815,19.8655462 L4.3697479,19.8655462 C2.09747899,19.7344538 0.98487395,18.3697479 0.98487395,15.6806723 C0.98487395,12.9915966 2.09747899,11.6168067 4.38991597,11.5058824 L4.38991597,11.5058824 Z M19.2638655,19.8453782 L18.5546218,19.8453782 C17.9260504,19.7344538 17.2537815,19.1428571 17.2537815,15.7109244 C17.2537815,11.589916 18.2386555,11.5596639 19.005042,11.5260504 L19.2907563,11.5260504 C21.5630252,11.6369748 22.6655537,13.0016807 22.6655537,15.7008403 C22.6689076,18.4 21.5361345,19.7344538 19.2638655,19.8453782 Z" id="Cascos-auriculares_1Light"></path>
        </g>
    </g>
</svg>

<svg width="24" height="24" viewBox="0 0 24 24" xmlns="http://www.w3.org/2000/svg"><path d="M21.22 10.955C21.153 1.916 16.013 0 11.694 0c-4.32 0-9.53 1.926-9.53 11.106C.767 11.889 0 13.442 0 15.68c0 3.2 1.536 5.015 4.323 5.166h.45c1.88-.07 2.609-1.526 2.609-5.176 0-3.65-.73-5.116-2.589-5.177H4.33c-.396.02-.79.084-1.17.192.118-6.42 2.982-9.681 8.535-9.681s8.397 3.24 8.535 9.62a6.72 6.72 0 00-.895-.12h-.473c-1.88.07-2.619 1.525-2.619 5.186 0 2.578.373 4.013 1.25 4.716a10.932 10.932 0 01-4.558 1.435 1.297 1.297 0 00-1.368-1.193 1.312 1.312 0 00-1.089.343c-.295.279-.45.675-.427 1.082-.037.4.084.8.337 1.113.285.292.679.45 1.082.43a1.44 1.44 0 001.113-.36c.114-.12.205-.262.265-.42a11.415 11.415 0 005.778-2.007c.067.004.138.004.205 0h.48c2.787-.13 4.314-2.006 4.314-5.166 0-2.36-.848-3.977-2.404-4.71zm-16.83.55h.353c.699 0 1.654.061 1.654 4.186 0 4.124-.985 4.144-1.752 4.175H4.37C2.097 19.734.985 18.37.985 15.68c0-2.69 1.112-4.064 3.405-4.175zm14.874 8.34h-.71c-.628-.11-1.3-.702-1.3-4.134 0-4.121.985-4.151 1.751-4.185h.286c2.272.111 3.375 1.476 3.375 4.175.003 2.699-1.13 4.033-3.402 4.144z" fill="#5CB615" fill-rule="nonzero"/></svg>
